X:1
T:Title
%%score ( 1 2 ) { 3 | 4 }
L:1/8
M:4/4
K:Ab
V:1 treble nm="Grand Piano, Piano"
V:2 treble 
V:3 bass nm="Grand Piano, Piano"
V:4 bass 
V:1
 z4 z2[Q:1/4=100] [A,C]2 | [CF]2 [CG]2 [CA]2 [FB]2 | [=Ec]6 [_EA]2 | [FB]2 [Fc]2 [Fd]2 [Ee]2 | %4
w: 1.~The~|God~ of~ A braham~|praise,~ who~|reigns~ en throned~ a|
[M:3/4] [Ec]6 |[M:1/4] [CG]2 |[M:4/4] [CA]2 [EB]2 [Ec]2 [Fd]2 | [Ee]2 [DG]2 [CA]2 [Fd]2 | %8
w: bove;~|An|cient~ of~ E ver|las ting~ Days,~ and~|
 [Ec]4 B2- [DB]2 |[M:3/4] [CA]6 |[M:1/4] [EA]2 |[M:4/4] [Ec]2 [Gc]2 [Fc]2 [Ec]2 | [EB]6 AG | %13
w: God~ of~ *|Love;~|Je|ho vah,~ great~ I~|AM!~ by~ *|
 FGAB [Ec]2 [DF]2 |[M:3/4] [C=E]6 |[M:1/4] C2 |[M:4/4] [CF]2 [CG]2 [CA]2 [EB]2 | %17
w: earth~ * and~ * heaven~ con|fessed;~|I~|bow~ and~ bless~ the~|
 [Ec]2 Bc [Fd]2 cB | [FA]4 [=EG]4 |[M:3/4] F6 |] %20
w: sa cred~ * name~ for *|e ver~|blest.~|
V:2
 x8 | x8 | x8 | x8 |[M:3/4] x6 |[M:1/4] x2 |[M:4/4] x8 | x8 | z4 E2 z2 |[M:3/4] x6 |[M:1/4] x2 | %11
[M:4/4] x8 | z4 z2 C2 | C2 F2 z4 |[M:3/4] x6 |[M:1/4] x2 |[M:4/4] x8 | z2 F2 z2 G2 | x8 | %19
[M:3/4] x6 |] %20
V:3
 z4 z2 F,2 | A,2 G,2 F,2 F,2 | G,6 A,2 | F,G, =A,2 B,2 G,2 |[M:3/4] A,6 |[M:1/4] =E,2 | %6
[M:4/4] F,2 G,2 A,2 A,2 | A,2 B,2 A,2 A,2 | A,4 G,4 |[M:3/4] A,6 |[M:1/4] C2 | %11
[M:4/4] A,2 B,2 A,2 A,2 | G,6 B,2 | A,2 F,G, A,2 G,2 |[M:3/4] G,6 |[M:1/4] =E,2 | %16
[M:4/4] F,2 =E,2 F,2 G,2 | A,2 F,=A, B,2[K:treble] D2 | C4 C2 B,2 |[M:3/4] A,6 |] %20
V:4
 z4 z2 F,,2 | F,2 =E,2 z2 D,2 | C,6 C,2 | D,2 C,2 B,,2 E,2 |[M:3/4] A,,6 |[M:1/4] C,2 | %6
[M:4/4] z2 E,2 z2 F,2 | C,2 E,2 F,2 D,2 | E,4 E,4 |[M:3/4] A,,6 |[M:1/4] A,,2 | %11
[M:4/4] z2 =E,2 F,2 C,2 | E,6 =E,2 | F,2 D,2 A,,2 B,,2 |[M:3/4] C,6 |[M:1/4] C,B,, | %16
[M:4/4] A,,2 C,2 z2 E,2 | A,,2 D,C, B,,2 B,,2 | C,4 C,4 |[M:3/4] F,6 |] %20

